X: 195
Q: "In marching rhythm"
M: 6/8
L: 1/8
K: F
d2 d c2 A | c2- c B2 A | (G2 F) G2 A | B3 |]
M: 2/2
L: 1/4
"In the same rhythm."\
(BG) FE & G-G FE | (F>G) AF & (F>G) AF | B2 AB & (DE) FG | c2 dA & (AG) ^FF | BG (FE) & GG (FE) | F2 & F2 |]


